X:1
T:[ID 1-140]
T:[ID 1-140]
T:Bezeichnung standardisiert: Menuett Menuet 3.
T:Urheber unbekannt Datum in der hier transkribierten schriftlichen Quelle: vermutlich vor 1767
C:Urheber unbekannt
C:Datum in der hier transkribierten schriftlichen Quelle: vermutlich vor 1767
L:1/8
M:3/4
K:D
V:1 treble 
V:1
 d4 (3efg | fd f2 g2 | a4 (3gab | a2 g2 f2 | A4 (3Bcd | cAecae | d2 c2 B2 |{B} A6 :: e4 (3def | %9
 e2 f2 g2 | fagfed | cB A4 | (3efg g2 (3gab | a2 g2 f2 | egfedc | d6 :| %16

